**kern	**kern
*staff2	*staff1
*clefF4	*clefG2
*k[b-e-a-]	*k[b-e-a-]
*M6/8	*M6/8
*E-:	*E-
=-	=-
(8EE-L	4B- 4g
8D-	.
8E-J)	8B- 8g
=178	=178
(8EE-L	4.c 4.a-
8C	.
8E-J)	.
(8EE-L	8A-L 8f
8BB-	8B- 8g
8DJ)	8A-J 8f
=179	=179
(8EE-L	4.G 4.e-
8BB-	.
8E-J)	.
(8EE-L	4B- 4g
8D-	.
8E-J)	8B- 8g
=180	=180
(8EE-L	4.c 4.a-
8C	.
8E-J)	.
(8EE-L	8A-L 8f
8BB-	8B- 8g
8DJ)	8A-J 8f
=181	=181
8EE-L	4.G 4.e-
8BB-	.
8E-J	.
*^	*
4.F 4.A- 4.B-	4.BBB-	8dL)
.	.	8c
.	.	8dJ
=182	=182	=182
4.G 4.B-	8EE-L	4.e-
.	8BB-	.
.	8E-J	.
4.F 4.A- 4.B-	4.BBB-	8dL)
.	.	8c
.	.	8dJ
=183	=183	=183
8G 8B-	8EE-	8e-
8r	8r	8r
8r	8r	8r
*v	*v	*
==	==
*-	*-
